X: 2
I: linebreak $
T: Anello
P: Play two times through
N: Drone: F/C
K: F major
M: 4/4
L: 1/8
M: 4/4
P: A (3x)
"^Quadernaria"c2de f2f2 | ecde c2c2 "^(3)":| c2de f2f2 | cBAG F2F2 | 
P: B
A/B/cz2 A/B/cz2 | A/B/cz2 def2 | 
f2cB AGF2 :: 
P: C
A2AG F2FB | AFGA F2F2 :: 
M: 2/4
P: D
f2 f2 | e2 e2 | df ed | c2 c2 :| 
M: 4/4
P: E
A/B/cz2 A/B/cz2 | A/B/cz2 f/e/cde | c2c2 FAG2 | F8 |] 

